src/icons/debug-step-into.svg

<svg width="16" height="16" viewBox="0 0 16 16" fill="none" xmlns="http://www.w3.org/2000/svg">
<path fill-rule="evenodd" clip-rule="evenodd" d="M8.00001 9.532H8.54201L12.447 5.627L11.386 4.567L8.74901 7.177L8.74901 1L8.00001 1L7.25101 1L7.25101 7.177L4.61401 4.567L3.55301 5.627L7.45801 9.532H8.00001ZM9.95601 13.013C9.95601 14.1176 9.06058 15.013 7.95601 15.013C6.85144 15.013 5.95601 14.1176 5.95601 13.013C5.95601 11.9084 6.85144 11.013 7.95601 11.013C9.06058 11.013 9.95601 11.9084 9.95601 13.013Z" fill="#75BEFF"/>
</svg>

<svg width="16" height="16" xmlns="http://www.w3.org/2000/svg"><path fill-rule="evenodd" clip-rule="evenodd" d="M8 9.532h.542l3.905-3.905-1.061-1.06-2.637 2.61V1H7.251v6.177l-2.637-2.61-1.061 1.06 3.905 3.905H8zm1.956 3.481a2 2 0 1 1-4 0 2 2 0 0 1 4 0z"/></svg>
